outline/svg/border_outer.svg

<svg xmlns="http://www.w3.org/2000/svg" width="24" height="24"><path fill="none" d="M0 0h24v24H0V0z"/><g fill="currentColor"><path d="M13 7h-2v2h2V7zm0 4h-2v2h2v-2zm4 0h-2v2h2v-2zM3 3v18h18V3H3zm16 16H5V5h14v14zm-6-4h-2v2h2v-2zm-4-4H7v2h2v-2z"/></g></svg>

<?xml version="1.0" encoding="utf-8"?>
<!-- Generator: Adobe Illustrator 19.1.0, SVG Export Plug-In . SVG Version: 6.00 Build 0)  -->
<svg version="1.1" xmlns="http://www.w3.org/2000/svg" xmlns:xlink="http://www.w3.org/1999/xlink" x="0px" y="0px" width="24px"
	 height="24px" viewBox="0 0 24 24" enable-background="new 0 0 24 24" xml:space="preserve">
<g id="Bounding_Boxes">
	<g id="ui_x5F_spec_x5F_header_copy_3">
	</g>
	<path fill="none" d="M0,0h24v24H0V0z"/>
</g>
<g id="Outline" fill="currentColor">
	<g id="ui_x5F_spec_x5F_header">
	</g>
	<path d="M13,7h-2v2h2V7z M13,11h-2v2h2V11z M17,11h-2v2h2V11z M3,3v18h18V3H3z M19,19H5V5h14V19z M13,15h-2v2h2V15z M9,11H7v2h2V11
		z"/>
</g>
</svg>
